bicons/16x16/categories/user-disabled.svg

<?xml version="1.0" encoding="UTF-8" standalone="no"?>
<!-- Created with Inkscape (http://www.inkscape.org/) -->

<svg
   xmlns:dc="http://purl.org/dc/elements/1.1/"
   xmlns:cc="http://creativecommons.org/ns#"
   xmlns:rdf="http://www.w3.org/1999/02/22-rdf-syntax-ns#"
   xmlns:svg="http://www.w3.org/2000/svg"
   xmlns="http://www.w3.org/2000/svg"
   xmlns:xlink="http://www.w3.org/1999/xlink"
   xmlns:sodipodi="http://sodipodi.sourceforge.net/DTD/sodipodi-0.dtd"
   xmlns:inkscape="http://www.inkscape.org/namespaces/inkscape"
   width="210mm"
   height="297mm"
   viewBox="0 0 744.09448819 1052.3622047"
   id="svg2"
   version="1.1"
   inkscape:version="0.91 r13725"
   inkscape:export-xdpi="3.5978763"
   inkscape:export-ydpi="3.5978763"
   sodipodi:docname="user-disabled.svg"
   inkscape:export-filename="C:\Users\johannes\Documents\Arbeit\RRZE\github3\bicons\16x16\categories\user-disabled.png">
  <defs
     id="defs4">
    <linearGradient
       id="linearGradient2224">
      <stop
         id="stop2226"
         offset="0"
         style="stop-color:#7c7c7c;stop-opacity:1;" />
      <stop
         id="stop2228"
         offset="1"
         style="stop-color:#b8b8b8;stop-opacity:1;" />
    </linearGradient>
    <linearGradient
       id="linearGradient15218">
      <stop
         id="stop15220"
         offset="0"
         style="stop-color:#eeeeef;stop-opacity:1;" />
      <stop
         id="stop2736"
         offset="0.59928656"
         style="stop-color:#d3d7cf;stop-opacity:1;" />
      <stop
         id="stop2738"
         offset="0.82758623"
         style="stop-color:#ffffff;stop-opacity:1;" />
      <stop
         id="stop15222"
         offset="1"
         style="stop-color:#d3d7cf;stop-opacity:1;" />
    </linearGradient>
    <pattern
       y="0"
       x="0"
       height="6"
       width="6"
       patternUnits="userSpaceOnUse"
       id="EMFhbasepattern" />
    <pattern
       y="0"
       x="0"
       height="6"
       width="6"
       patternUnits="userSpaceOnUse"
       id="EMFhbasepattern-5" />
    <linearGradient
       inkscape:collect="always"
       xlink:href="#linearGradient4254"
       id="linearGradient4268"
       x1="358.43118"
       y1="465.73074"
       x2="429.96555"
       y2="644.62878"
       gradientUnits="userSpaceOnUse"
       gradientTransform="matrix(1.1386133,0,0,1.1386133,-55.925866,-53.752814)" />
    <linearGradient
       inkscape:collect="always"
       id="linearGradient4254">
      <stop
         style="stop-color:#7a8597;stop-opacity:1"
         offset="0"
         id="stop4256" />
      <stop
         style="stop-color:#4e505d;stop-opacity:1"
         offset="1"
         id="stop4258" />
    </linearGradient>
    <linearGradient
       inkscape:collect="always"
       xlink:href="#linearGradient4254"
       id="linearGradient4260"
       x1="380.01031"
       y1="330.40619"
       x2="414.6156"
       y2="457.18103"
       gradientUnits="userSpaceOnUse"
       gradientTransform="matrix(1.1539288,0,0,1.1539288,-62.522972,-59.270699)" />
  </defs>
  <sodipodi:namedview
     id="base"
     pagecolor="#ffffff"
     bordercolor="#666666"
     borderopacity="1.0"
     inkscape:pageopacity="0.0"
     inkscape:pageshadow="2"
     inkscape:zoom="0.5"
     inkscape:cx="842.01537"
     inkscape:cy="591.3233"
     inkscape:document-units="px"
     inkscape:current-layer="layer1"
     showgrid="false"
     showguides="true"
     inkscape:guide-bbox="true"
     inkscape:window-width="1366"
     inkscape:window-height="721"
     inkscape:window-x="-4"
     inkscape:window-y="-4"
     inkscape:window-maximized="1">
    <sodipodi:guide
       position="315.53572,730.17859"
       orientation="0,1"
       id="guide3338" />
    <sodipodi:guide
       position="351.25,330.17858"
       orientation="0,1"
       id="guide3340" />
    <sodipodi:guide
       position="189.10714,408.8393"
       orientation="1,0"
       id="guide3344" />
    <sodipodi:guide
       position="589.04521,468.07945"
       orientation="1,0"
       id="guide3346" />
    <inkscape:grid
       type="xygrid"
       id="grid3440" />
    <sodipodi:guide
       position="589.04521,378.30213"
       orientation="1,0"
       id="guide3411" />
  </sodipodi:namedview>
  <metadata
     id="metadata7">
    <rdf:RDF>
      <cc:Work
         rdf:about="">
        <dc:format>image/svg+xml</dc:format>
        <dc:type
           rdf:resource="http://purl.org/dc/dcmitype/StillImage" />
        <dc:title>user disabled</dc:title>
        <dc:date>June 2015</dc:date>
        <dc:creator>
          <cc:Agent>
            <dc:title>Johannes Hechler</dc:title>
          </cc:Agent>
        </dc:creator>
        <dc:rights>
          <cc:Agent>
            <dc:title>Johannes Hechler</dc:title>
          </cc:Agent>
        </dc:rights>
        <dc:publisher>
          <cc:Agent>
            <dc:title>RRZE</dc:title>
          </cc:Agent>
        </dc:publisher>
        <dc:contributor>
          <cc:Agent>
            <dc:title>Ute Weber, Hendrik Eggers</dc:title>
          </cc:Agent>
        </dc:contributor>
      </cc:Work>
    </rdf:RDF>
  </metadata>
  <g
     inkscape:label="Ebene 1"
     inkscape:groupmode="layer"
     id="layer1">
    <g
       id="g4262">
      <flowRoot
         style="font-style:normal;font-weight:normal;font-size:40px;line-height:125%;font-family:sans-serif;letter-spacing:0px;word-spacing:0px;fill:#252525;fill-opacity:1;stroke:none;stroke-width:1px;stroke-linecap:butt;stroke-linejoin:miter;stroke-opacity:1"
         id="flowRoot4169-5"
         xml:space="preserve"
         transform="translate(-0.00931576,-0.25161461)"><flowRegion
           id="flowRegion4171-6"><rect
             y="427.07962"
             x="89.541069"
             height="88.78862"
             width="56.433445"
             id="rect4173-2" /></flowRegion><flowPara
           id="flowPara4175-7" /></flowRoot>      <rect
         inkscape:export-ydpi="4.9499998"
         inkscape:export-xdpi="4.9499998"
         y="322.0184"
         x="189.13553"
         height="400"
         width="400"
         id="rect3336-2"
         style="fill:none;fill-rule:evenodd;stroke:none;stroke-width:1px;stroke-linecap:butt;stroke-linejoin:miter;stroke-opacity:1" />
      <path
         id="path2176"
         d="m 339.875,486.48242 c -0.13373,0.11831 -0.25652,0.24651 -0.39453,0.36133 -61.16267,49.46593 -81.68239,117.92677 -82.29688,167.33203 0,17.41501 1.58896,34.28885 4.55274,50.3418 4.39616,9.83465 15.44085,17.0429 28.67578,17.98437 l 0,0.10743 113.24609,0 -2.04101,-2.07618 0.14648,0.14649 c -15.06889,-15.07434 -15.08339,-40.44467 -0.002,-55.52735 l 30.62305,-30.625 -30.30274,-30.30664 c -15.5119,-15.51316 -15.51204,-41.59813 0,-57.11132 l 13.27344,-13.2754 c 7.75597,-7.75654 18.15622,-11.63477 28.55664,-11.63476 10.40042,0 20.80069,3.87823 28.55664,11.63476 l 30.30078,30.30469 1.20703,-1.20703 c -12.65551,-25.7875 -32.59178,-51.4336 -62.75,-75.82812 -12.47076,7.00181 -34.84567,7.01953 -50.13281,7.01953 -15.73277,2e-5 -38.50037,-0.25546 -51.21875,-7.64063 z m 147.60938,132.76367 a 25.0025,25.0025 0 0 1 0.55859,29.82032 25.0025,25.0025 0 0 1 29.83594,0.56836 25.0025,25.0025 0 0 1 -0.56836,-29.8125 25.0025,25.0025 0 0 1 -29.82617,-0.57618 z m -2.15821,102.9375 -0.42383,0.42579 2.21875,0 0,-0.008 c 1.80639,-0.0255 3.57731,-0.16767 5.30274,-0.41797 l -7.09766,0 z"
         style="fill:url(#linearGradient4268);fill-opacity:1;stroke:none;stroke-width:41.15159225;stroke-linecap:round;stroke-linejoin:round;stroke-opacity:1"
         inkscape:connector-curvature="0" />
      <ellipse
         ry="75.343689"
         rx="75.752335"
         cx="390.52121"
         cy="397.95389"
         id="circle2187-6"
         style="fill:url(#linearGradient4260);fill-opacity:1;stroke:none;stroke-width:14;stroke-miterlimit:4;stroke-dasharray:none;stroke-opacity:1" />
      <flowRoot
         style="font-style:normal;font-weight:normal;font-size:40px;line-height:125%;font-family:sans-serif;letter-spacing:0px;word-spacing:0px;fill:#252525;fill-opacity:1;stroke:none;stroke-width:1px;stroke-linecap:butt;stroke-linejoin:miter;stroke-opacity:1"
         id="flowRoot4169"
         xml:space="preserve"
         transform="translate(0.22680607,0.98931037)"><flowRegion
           id="flowRegion4171"><rect
             y="427.07962"
             x="89.541069"
             height="88.78862"
             width="56.433445"
             id="rect4173" /></flowRegion><flowPara
           id="flowPara4175" /></flowRoot>      <rect
         inkscape:export-ydpi="4.9499998"
         inkscape:export-xdpi="4.9499998"
         y="323.25937"
         x="189.37166"
         height="400"
         width="400"
         id="rect3336"
         style="fill:none;fill-rule:evenodd;stroke:none;stroke-width:1px;stroke-linecap:butt;stroke-linejoin:miter;stroke-opacity:1" />
      <path
         sodipodi:nodetypes="cccscsccsssscscsccsccc"
         inkscape:connector-curvature="0"
         id="rect4217"
         d="m 584.41502,703.77749 c 6.02747,-6.028 6.02287,-15.73532 -0.003,-21.76328 l -47.61909,-47.62285 48.23941,-48.24325 c 5.58788,-5.58834 5.58333,-14.58751 -0.003,-20.17585 l -14.6734,-14.67457 c -5.58789,-5.58834 -14.58637,-5.59292 -20.17425,-0.003 l -48.2394,48.24324 -47.97938,-47.98324 c -6.02747,-6.02791 -15.72946,-6.02794 -21.75697,0 l -13.27313,13.27424 c -6.0275,6.02795 -6.02747,15.73075 0,21.7587 l 47.97938,47.98321 -48.29868,48.30254 c -5.58789,5.58833 -5.58329,14.58754 0.003,20.17586 l 14.67339,14.92446 c 5.54053,5.63532 14.58635,5.59289 20.17424,0.003 l 48.29868,-48.55242 47.80644,48.24756 c 5.99997,6.05534 15.73405,6.03254 21.76153,0.003 l 13.08577,-13.89889 z"
         style="opacity:1;fill:#d9463a;fill-opacity:1;stroke:none;stroke-width:0;stroke-linecap:square;stroke-linejoin:round;stroke-miterlimit:4;stroke-dasharray:none;stroke-opacity:1" />
    </g>
  </g>
</svg>

<?xml version="1.0" encoding="UTF-8" standalone="no"?>
<!-- Created with Inkscape (http://www.inkscape.org/) -->

<svg
   xmlns:dc="http://purl.org/dc/elements/1.1/"
   xmlns:cc="http://creativecommons.org/ns#"
   xmlns:rdf="http://www.w3.org/1999/02/22-rdf-syntax-ns#"
   xmlns:svg="http://www.w3.org/2000/svg"
   xmlns="http://www.w3.org/2000/svg"
   xmlns:xlink="http://www.w3.org/1999/xlink"
   xmlns:sodipodi="http://sodipodi.sourceforge.net/DTD/sodipodi-0.dtd"
   xmlns:inkscape="http://www.inkscape.org/namespaces/inkscape"
   width="210mm"
   height="297mm"
   viewBox="0 0 744.09448819 1052.3622047"
   id="svg2"
   version="1.1"
   inkscape:version="0.91 r13725"
   inkscape:export-xdpi="3.5978763"
   inkscape:export-ydpi="3.5978763"
   sodipodi:docname="user-disabled.svg"
   inkscape:export-filename="D:\Dokumente\Arbeit\RRZE\github\bicons\16x16\categories\user-disabled.png">
  <defs
     id="defs4">
    <linearGradient
       id="linearGradient2224">
      <stop
         id="stop2226"
         offset="0"
         style="stop-color:#7c7c7c;stop-opacity:1;" />
      <stop
         id="stop2228"
         offset="1"
         style="stop-color:#b8b8b8;stop-opacity:1;" />
    </linearGradient>
    <linearGradient
       id="linearGradient15218">
      <stop
         id="stop15220"
         offset="0"
         style="stop-color:#eeeeef;stop-opacity:1;" />
      <stop
         id="stop2736"
         offset="0.59928656"
         style="stop-color:#d3d7cf;stop-opacity:1;" />
      <stop
         id="stop2738"
         offset="0.82758623"
         style="stop-color:#ffffff;stop-opacity:1;" />
      <stop
         id="stop15222"
         offset="1"
         style="stop-color:#d3d7cf;stop-opacity:1;" />
    </linearGradient>
    <pattern
       y="0"
       x="0"
       height="6"
       width="6"
       patternUnits="userSpaceOnUse"
       id="EMFhbasepattern" />
    <pattern
       y="0"
       x="0"
       height="6"
       width="6"
       patternUnits="userSpaceOnUse"
       id="EMFhbasepattern-5" />
    <linearGradient
       inkscape:collect="always"
       xlink:href="#linearGradient4254"
       id="linearGradient4268"
       x1="358.43118"
       y1="465.73074"
       x2="429.96555"
       y2="644.62878"
       gradientUnits="userSpaceOnUse"
       gradientTransform="matrix(1.1386133,0,0,1.1386133,-55.925866,-53.752814)" />
    <linearGradient
       inkscape:collect="always"
       id="linearGradient4254">
      <stop
         style="stop-color:#7a8597;stop-opacity:1"
         offset="0"
         id="stop4256" />
      <stop
         style="stop-color:#4e505d;stop-opacity:1"
         offset="1"
         id="stop4258" />
    </linearGradient>
    <linearGradient
       inkscape:collect="always"
       xlink:href="#linearGradient4254"
       id="linearGradient4260"
       x1="380.01031"
       y1="330.40619"
       x2="414.6156"
       y2="457.18103"
       gradientUnits="userSpaceOnUse"
       gradientTransform="matrix(1.1539288,0,0,1.1539288,-62.522972,-59.270699)" />
  </defs>
  <sodipodi:namedview
     id="base"
     pagecolor="#ffffff"
     bordercolor="#666666"
     borderopacity="1.0"
     inkscape:pageopacity="0.0"
     inkscape:pageshadow="2"
     inkscape:zoom="2"
     inkscape:cx="455.89298"
     inkscape:cy="509.64637"
     inkscape:document-units="px"
     inkscape:current-layer="layer1"
     showgrid="false"
     showguides="true"
     inkscape:guide-bbox="true"
     inkscape:window-width="1600"
     inkscape:window-height="837"
     inkscape:window-x="-4"
     inkscape:window-y="-4"
     inkscape:window-maximized="1">
    <sodipodi:guide
       position="315.53572,730.17859"
       orientation="0,1"
       id="guide3338" />
    <sodipodi:guide
       position="351.25,330.17858"
       orientation="0,1"
       id="guide3340" />
    <sodipodi:guide
       position="189.10714,408.8393"
       orientation="1,0"
       id="guide3344" />
    <sodipodi:guide
       position="589.04521,468.07945"
       orientation="1,0"
       id="guide3346" />
    <inkscape:grid
       type="xygrid"
       id="grid3440" />
    <sodipodi:guide
       position="589.04521,378.30213"
       orientation="1,0"
       id="guide3411" />
  </sodipodi:namedview>
  <metadata
     id="metadata7">
    <rdf:RDF>
      <cc:Work
         rdf:about="">
        <dc:format>image/svg+xml</dc:format>
        <dc:type
           rdf:resource="http://purl.org/dc/dcmitype/StillImage" />
        <dc:title>user disabled</dc:title>
        <dc:date>June 2015</dc:date>
        <dc:creator>
          <cc:Agent>
            <dc:title>Johannes Hechler</dc:title>
          </cc:Agent>
        </dc:creator>
        <dc:rights>
          <cc:Agent>
            <dc:title>Johannes Hechler</dc:title>
          </cc:Agent>
        </dc:rights>
        <dc:publisher>
          <cc:Agent>
            <dc:title>RRZE</dc:title>
          </cc:Agent>
        </dc:publisher>
        <dc:contributor>
          <cc:Agent>
            <dc:title>Ute Weber, Hendrik Eggers</dc:title>
          </cc:Agent>
        </dc:contributor>
      </cc:Work>
    </rdf:RDF>
  </metadata>
  <g
     inkscape:label="Ebene 1"
     inkscape:groupmode="layer"
     id="layer1">
    <g
       id="g4184">
      <flowRoot
         style="font-style:normal;font-weight:normal;font-size:40px;line-height:125%;font-family:sans-serif;letter-spacing:0px;word-spacing:0px;fill:#252525;fill-opacity:1;stroke:none;stroke-width:1px;stroke-linecap:butt;stroke-linejoin:miter;stroke-opacity:1"
         id="flowRoot4169-5"
         xml:space="preserve"
         transform="translate(-0.00931576,-0.25161461)"><flowRegion
           id="flowRegion4171-6"><rect
             y="427.07962"
             x="89.541069"
             height="88.78862"
             width="56.433445"
             id="rect4173-2" /></flowRegion><flowPara
           id="flowPara4175-7" /></flowRoot>      <rect
         inkscape:export-ydpi="4.9499998"
         inkscape:export-xdpi="4.9499998"
         y="322.0184"
         x="189.13553"
         height="400"
         width="400"
         id="rect3336-2"
         style="fill:none;fill-rule:evenodd;stroke:none;stroke-width:1px;stroke-linecap:butt;stroke-linejoin:miter;stroke-opacity:1" />
      <path
         id="path2176"
         d="M 339.875 486.48242 C 339.74127 486.60073 339.61848 486.72893 339.48047 486.84375 C 278.3178 536.30968 257.79808 604.77052 257.18359 654.17578 C 257.18359 671.59079 258.77255 688.46463 261.73633 704.51758 C 266.13249 714.35223 277.17718 721.56048 290.41211 722.50195 L 290.41211 722.60938 L 403.6582 722.60938 L 401.61719 720.5332 L 401.76367 720.67969 C 386.69478 705.60535 386.68033 680.23502 401.76172 665.15234 L 432.38477 634.52734 L 402.08203 604.2207 C 386.57013 588.70754 386.56999 562.62256 402.08203 547.10938 L 415.35547 533.83398 C 422.26214 526.9268 431.26671 523.10399 440.5 522.34766 L 440.5 487.49023 C 427.90319 494.10178 406.09093 494.12305 391.09375 494.12305 C 375.36098 494.12307 352.59338 493.86759 339.875 486.48242 z M 492.46875 637.86133 A 25.0025 25.0025 0 0 1 488.04297 649.06641 A 25.0025 25.0025 0 0 1 517.87891 649.63477 A 25.0025 25.0025 0 0 1 512.92578 637.86133 L 492.46875 637.86133 z M 485.32617 722.18359 L 484.90234 722.60938 L 487.12109 722.60938 L 487.12109 722.60156 C 488.92748 722.57606 490.6984 722.43389 492.42383 722.18359 L 485.32617 722.18359 z "
         style="fill:url(#linearGradient4268);fill-opacity:1;stroke:none;stroke-width:41.15159225;stroke-linecap:round;stroke-linejoin:round;stroke-opacity:1" />
      <ellipse
         ry="75.343689"
         rx="75.752335"
         cx="390.52121"
         cy="397.95389"
         id="circle2187-6"
         style="fill:url(#linearGradient4260);fill-opacity:1;stroke:none;stroke-width:14;stroke-miterlimit:4;stroke-dasharray:none;stroke-opacity:1" />
      <flowRoot
         style="font-style:normal;font-weight:normal;font-size:40px;line-height:125%;font-family:sans-serif;letter-spacing:0px;word-spacing:0px;fill:#252525;fill-opacity:1;stroke:none;stroke-width:1px;stroke-linecap:butt;stroke-linejoin:miter;stroke-opacity:1"
         id="flowRoot4169"
         xml:space="preserve"
         transform="translate(0.22680607,0.98931037)"><flowRegion
           id="flowRegion4171"><rect
             y="427.07962"
             x="89.541069"
             height="88.78862"
             width="56.433445"
             id="rect4173" /></flowRegion><flowPara
           id="flowPara4175" /></flowRoot>      <rect
         inkscape:export-ydpi="4.9499998"
         inkscape:export-xdpi="4.9499998"
         y="323.25937"
         x="189.37166"
         height="400"
         width="400"
         id="rect3336"
         style="fill:none;fill-rule:evenodd;stroke:none;stroke-width:1px;stroke-linecap:butt;stroke-linejoin:miter;stroke-opacity:1" />
      <path
         sodipodi:nodetypes="cccscsccsssscscsccsccc"
         inkscape:connector-curvature="0"
         id="rect4217"
         d="m 584.41502,703.77749 c 6.02747,-6.028 6.02287,-15.73532 -0.003,-21.76328 l -47.61909,-47.62285 48.23941,-48.24325 c 5.58788,-5.58834 5.58333,-14.58751 -0.003,-20.17585 l -14.6734,-14.67457 c -5.58789,-5.58834 -14.58637,-5.59292 -20.17425,-0.003 l -48.2394,48.24324 -47.97938,-47.98324 c -6.02747,-6.02791 -15.72946,-6.02794 -21.75697,0 l -13.27313,13.27424 c -6.0275,6.02795 -6.02747,15.73075 0,21.7587 l 47.97938,47.98321 -48.29868,48.30254 c -5.58789,5.58833 -5.58329,14.58754 0.003,20.17586 l 14.67339,14.92446 c 5.54053,5.63532 14.58635,5.59289 20.17424,0.003 l 48.29868,-48.55242 47.80644,48.24756 c 5.99997,6.05534 15.73405,6.03254 21.76153,0.003 l 13.08577,-13.89889 z"
         style="opacity:1;fill:#d9463a;fill-opacity:1;stroke:none;stroke-width:0;stroke-linecap:square;stroke-linejoin:round;stroke-miterlimit:4;stroke-dasharray:none;stroke-opacity:1" />
    </g>
  </g>
</svg>
